X:1
T:Title
%%score { 1 | 2 }
L:1/8
M:6/8
K:F
V:1 treble nm="Grand Piano"
V:2 bass 
V:1
 z3 z2[Q:1/4=93] c | c>BA AGF | [DG]>[DF][K:bass][F,D] [B,DF]2 [F,B,D] | [F,A,C]>[K:treble]FF AGF | %4
 [EG]3- [EG]2 [Ec] | c>BA AGF | [DG]>[DF]D [DB]2 [Fd] | [Fc]>C[FA] G>FE |[M:5/8] F-F- F3 | %9
[M:1/8] F |[M:3/4] F>F F B2 [Fd] | c>A A [Ac]2 A | G>G G[DF=B] [DFA][DFB] | [Ec]4- [Ec][Ec] | %14
 c>B AA GF | [DG]>[DF] D [DB]2 [Fd] | [Fc]>C [FA]G- G/F/E |[M:13/8] F-F- F3 z z z z z z z2 |] %18
V:2
 z3 z2 [F,A,F] | [F,A,F]>[F,DF][F,CF] [F,CF][F,B,C][F,A,C] | [B,,B,]>[B,,B,]B,, B,,2 B,, | %3
 F,,>[F,A,C][F,A,C] [F,CF][E,C][D,=B,D] | [C,C]3- [C,C]2 [C,B,] | %5
 [F,A,F]>[F,DF][F,CF] [F,CF][F,B,C][F,A,C] | [B,,B,]>[B,,B,][B,,F,] [B,,F,]2 [B,,B,] | %7
 [C,A,]>[C,A,][C,C] [C,B,C]>[C,A,C][C,G,C] |[M:5/8] [F,A,C]-[F,A,C]- [F,A,C]3 |[M:1/8] [F,A,C] | %10
[M:3/4] [B,D]>[B,D] [B,D] [B,D]2 [B,,B,] | [F,A,F]>[F,CF] [F,CF] [F,F]2 [F,CF] | %12
 [G,CE]>[G,CE] [G,CE][G,,G,] [G,,G,][G,,G,] | [C,C]4- [C,C][C,B,] | %14
 [F,A,F]>[F,DF] [F,CF][F,CF] [F,B,C][F,A,C] | [B,,B,]>[B,,B,] [B,,F,] [B,,F,]2 [B,,B,] | %16
 [C,A,]>[C,A,] [C,C][C,B,C]- [C,B,C]/[C,A,C]/[C,G,C] | %17
[M:13/8] [F,A,C]-[F,A,C]- [F,A,C]3 z z z z z z z2 |] %18

